X:0154
T:The Braes of Angus
M:2/4
L:1/8
Q:1/4=96
I: :: :|
Z:Jack Campin * www.campin.me.uk * 2009
K:E Minor
EEGE |F2d2| AGFE             |DEFD  |\
EEGE |F2e2| dBdF             |EE E2:|
e>feB|eeg2|(a/g/f/e/)  de    |d>efd |\
e>feB|eeg2|(a/g/f/e/) (d/e/f)|e>ee>f|
e>efB|eeg2|(a/g/f/e/)  de    |d>efd |\
egde |BdAc| GAFe             |EE E2:|

